**kern
*staff1
*solos[solo1,solo2,solo3]
=1-
*clefG2
*k[]
*A-:
*M4/4
*>head1
{[2e-/
8e-/L]
8f/
8g/
8a-/J
=2
8b-/L
8a-/
8g/
8a-/J
8cc\L
8ee-\J}
4r
=3
2r
{8f#/L
8g/
8b-/
8dd/J
=4
8ff\L
8dd\
8ee-\
8een\J
8cc\L
8cc#\
8dd\
8ccn\J
=5
8b-/L
8a-/
8g/
8f/J
8e/L
8g/
8b-/
8dd-/J
=6
8cc\L
8b\
8b-\
8a\J
8a-/L
8f/J}
4r
=7
2r
{8g/L
8f/
8d/
8B-/J
=8
2B/
8g/L
8g-/
8f/
8e/J
=9
8e-/L
8d-/
8c/
8e-/J
8f/L
8g/
8b-/
8g/J}
=10||
2r
{8a/L
8f#/
8d/
8B/J
=11
8a-/L
8f/J}
4r
4r
{8cc\L
8b-\J
=12
8a-/L
8f/
8d-/
8B-/J
4Bn/}
4r
=13
4r
{8g/L
8f/J
8e-/L
8d-/
8c/
8e-/J
=14
8b-/L
8g-/
8e-/
8B-/J
8a-/L
8f/
8d-/
8B-/J
=15
8c/L
8e-/J}
4r
2r
=16
1r
=17
4r
*>solo1
{8g/L
8g-/J
8f/L
8e/
8e-/
8d-/J
=18||
8c/L
8e-/
8f/
8g/J
8b-/L
8a-/
8g/
8f/J
=19
8e/L
8g/
8b-/
8cc/J
8dd-\L
8cc\
8b-\
8a-\J
=20
8g/L
8f/
8e/
8g/J
8b-\L
8dd-\
8cc\
8b-\J
=21
4a-/}
4r
{8F/L
8A-/
8c/
8A-/J
=22
8G/L
8B-/
8d-/
8B-/J
8A-/L
8c/
8f/
8a-/J
=23
8g/L
8f/
8e/
8g/J
8b-\L
8dd-\
8cc\
8b-\J
=24
4a-/}
4r
8r
{8g/
12a-\L
12cc\
12ee-\J
=25
8gg\L
8gg-\
8ff\
8ee\J
8ee-\L
8cc\J
12dd-\L
12ee-\
12dd-\J
=26||
8cc/L
8b-/
8a/
8c/J
8e-/L
8g-/
8f/
8en/J
=27
8e-/L
8c/
8d-/
8G/J
8B-/L
8d-/
8c/
8B-/J
=28
8A-/L
8G-/
8Gn/
8B-/J
12d-/L
12e/
12g/J
4e/}
=29
2r
{8c/L
8d-/
8e/
[8e-/J
=30
8e-/L]
8c/J
12d-/L
12e-/
12d-/J
8c/L
8B-/J}
4r
=31
4r
{8e-/L
8d-/J
8c/L
8e-/
8g/
8a-/J
=32
8b-/L
8a-/
8g/
8f/J
8e/L
8g/
8b-/
8dd-/J
=33
8cc/L
8a-/
8f/
8d-/J
8b-/L
8g/
8e/
8d-/J
=34||
8a-/L
8f/J}
4r
2r
=35
8r
{8B-/
16d-/LL
16f/
16a-/
16cc/JJ
8ee-\
8r
8ee-\L
[8dd-\J
=36
8dd-\L]
8dd-\J
4cc\}
2r
=37
2r
{12ee\L
12ff\
12ff#\J
12gg\L
12ff#\
12ffn\J
=38
8ee\L
8g\
8b-\
8cc\J
12dd-\L
12cc\
12b-\J}
4r
=39
4r
{12b\L
12cc\
12b\J
8b-/L
8a-/
8g/
8f/J
=40
8e/L
8g/
8b-/
8dd-/J
8cc\L
8bn\
8b-\
8a\J
=41
8a-/L
8c/
8f/
8a-/J
8g/L
8f/
8e/
8c/J
=42||
8f/L
8c/
8A-/
8G/J
8F/L
8d-/
8B-/
8Bn/J
=43
8c/L
8A-/
8F/
8G/J
8B-/L
8G/
8A-/
8B-/J
=44
8G/L
[8F/J
4F/]}
2r
=45
2r
{8f/L
8a-/
8cc/
8ee-/J
=46
8dd\L
8b-\
8bn\
8cc\J
8a-/L
8g/
8f/
8e-/J
=47
4d-/}
4r
8r
{8e/L
8f/
8a-/J
=48
8cc\L
[8b-\J
4b-\]}
2r
=49
4r
*>solo2
{8B/L
8c/J
8e-/L
8f/
8g/
8a-/J
=50||
8b-/L
8a-/
8g/
8a-/J
8cc\L
8ee-\J}
4r
=51
2r
{8f#/L
8g/
8b-/
8dd/J
=52
8ff\L
8dd\
8ee-\
8een\J
8cc\L
8cc#\
8dd\
8ccn\J
=53
8b-/L
8a-/
8g/
8f/J
8e/L
8g/
8b-/
8dd-/J
=54
8cc\L
8b\
8b-\
8a\J
8a-/L
8f/J}
4r
=55
8r
{8G#/
12A/L
12c/
12e-/J
8g-/L
8f/
8e-/
8d-/J
=56
8c/L
8B-/
8A/
8c/J
8e-/L
8g-/
8f/
8e-/J
=57
8d-/L
8F/
8B-/
8d-/J
8c/L
8B-/
8A/
8B-/J
=58||
8c/L
8A/
8B-/
8c/J
8d-/L
8e-/
8f/
8a-/J
=59
4cc\
8ee-\L
[8b-\J
4b-\]}
4r
=60
1r
=61
{4a-/
12cc\L
12dd-\
12ee-\J
4dd-\
4dd-\
=62
4cc\
8cc\L
8b-\J}
4r
{8g/L
8a-/J
=63
8cc\L
8ee-\
8dd\
8b\J
8a-/L
8f/
8e/
8g/J
=64
8b-\L
8dd-\
8cc\
8bn\J
8b-/L
8a/
8a-/
8g/J
=65
8g-/L
8f/
8e/
8B/J
8d-/L
8e/
8e-/
8d-/J
=66||
4c/}
4r
2r
=67
1r
=68
1r
=69
1r
=70
1r
=71
1r
=72
1r
=73
1r
=74
1r
=75
1r
=76
1r
=77
1r
=78
1r
=79
1r
=80
1r
=81
1r
=82
1r
=83
1r
=84
1r
=85
1r
=86
1r
=87
1r
=88
1r
=89
1r
=90
1r
=91
1r
=92
1r
=93
1r
=94
1r
=95
1r
=96
1r
=97
1r
=98
1r
=99
1r
=100
1r
=101
1r
=102
1r
=103
1r
=104
1r
=105
1r
=106
1r
=107
1r
=108
1r
=109
1r
=110
1r
=111
1r
=112
1r
=113
1r
=114
1r
=115
1r
=116
1r
=117
1r
=118
1r
=119
1r
=120
1r
=121
1r
=122
1r
=123
1r
=124
1r
=125
1r
=126
1r
=127
1r
=128
1r
=129
1r
=130||
1r
=131
1r
=132
1r
=133
1r
=134
1r
=135
1r
=136
1r
=137
1r
=138
1r
=139
1r
=140
1r
=141
1r
=142
1r
=143
1r
=144
1r
=145
1r
=146
1r
=147
1r
=148
1r
=149
1r
=150
1r
=151
1r
=152
1r
=153
1r
=154
1r
=155
1r
=156
1r
=157
1r
=158
1r
=159
1r
=160
1r
=161
1r
=162
1r
=163
1r
=164
1r
=165
1r
=166
1r
=167
1r
=168
1r
=169
1r
=170
1r
=171
1r
=172
1r
=173
1r
=174
1r
=175
1r
=176
1r
=177
1r
=178
1r
=179
1r
=180
1r
=181
1r
=182
1r
=183
1r
=184
1r
=185
1r
=186
1r
=187
1r
=188
1r
=189
1r
=190
1r
=191
1r
=192
1r
=193
1r
=194||
1r
=195
1r
=196
1r
=197
1r
=198
1r
=199
1r
=200
1r
=201
1r
=202
1r
=203
1r
=204
1r
=205
1r
=206
1r
=207
1r
=208
1r
=209
4r
*>solo3
{8B/L
8c/J
8e-/L
8d-/
8c/
8e-/J
=210||
8f/L
8g/
8b-/
8g/J
8a-/L
8e-/J}
4r
=211
{12cc\L
12dd-\
12cc\J
8b-/L
8a-/J
8g/L
8f/
8e/
8g/J
=212
8b-\L
8dd-\
8b-\
8g\J
8cc\L
8bn\
8b-\
8a\J
=213
8a-/L
8f/J}
4r
2r
=214
1r
=215
1r
=216
1r
=217
2r
{8f\L
8b-\
8dd-\
8ff\J
=218||
8ee-\L
8cc\J}
4r
2r
=219
{8dd-/L
8f/
8a-/
8cc/J
8b-\
4a-/
8f/
=220
4g/}
4r
2r
=221
8r
{8b\L
8cc\
8ee-\J
8b/L
8a-/J
4f/
=222
4a-/
8a-/L
[8g-/J
8g-/L]
8g-/J
4e-/
=223
8r
8b\L
8cc\
8ee-\J
12b\L
12b-\
12a-\J
8f/L
8e-/J
=224
4a-/
8a-/L
[8g-/J
8g-/L]
8g-/J
4e-};/
==
*-
